src/images/svg/forex-nav.svg

<svg xmlns="http://www.w3.org/2000/svg" viewBox="0 0 32 32">
    <g fill="none" fill-rule="evenodd">
        <path fill="#33658A" d="M26 0c3.314 0 6 2.686 6 6v20c0 3.314-2.686 6-6 6H6c-3.314 0-6-2.686-6-6V6c0-3.314 2.686-6 6-6h20z"/>
        <path fill="#FFF" d="M16 8v4H9v3h5v3H9v6H5V8h11z"/>
        <path fill="#FFF" d="M13 8L17.5 15.5 13 24 17 24 20 19 23 24 27 24 22.5 15.5 27 8 22.5 8 20 12 17.5 8z"/>
    </g>
</svg>

<svg xmlns="http://www.w3.org/2000/svg" viewBox="0 0 32 32"><g fill="none" fill-rule="evenodd"><path fill="#33658A" d="M26 0a6 6 0 016 6v20a6 6 0 01-6 6H6a6 6 0 01-6-6V6a6 6 0 016-6h20z"/><path fill="#FFF" d="M16 8v4H9v3h5v3H9v6H5V8h11z"/><path fill="#FFF" d="M13 8l4.5 7.5L13 24h4l3-5 3 5h4l-4.5-8.5L27 8h-4.5L20 12l-2.5-4z"/></g></svg>
